X:1
T:The Lad That Wears The Plaid  "THE ROSE AMONG THE HEATHER"
M:C
L:1/8
Q:80
C:Traditional
S:Strathspey
K:HP
|: {g}f3/2g/2{fg}f3/2e/2{Gdc}d3/2e/2{gde}d3/2B/2 | \
{g}A2{GdGe}A3/2d/2{g}c/2e3/2{A}e2 | \
{g}f3/2g/2{fg}f3/2e/2{Gdc}d3/2e/2{gde}d3/2B/2 |
{g}A3/2{d}c/2{gef}e3/2g/2{a}f/2d3/2{gdG}d2 :: \
{ag}a2f/2e/2d{g}f/2a3/2{g}a2 | \
B2{GdGe}B3/2d/2{g}c/2e3/2{A}e2 |
{ag}a2f/2e/2d{g}f/2a3/2{g}a2 | \
{g}B/2c/2d{g}e/2f/2g{a}f/2d3/2{gdG}d2 :: \
{gBd}B3/2A/2{g}G3/2{d}B/2{g}A2{GdGe}A2 |
{gBd}B/2{e}A3/2{g}B/2c/2d{g}c/2e3/2{A}e2 | \
{gBd}B3/2A/2{g}G3/2{d}B/2{g}A2{GdGe}A2 | \
{g}B/2c/2d{g}e/2f/2g{a}f/2d3/2{gdG}d2:| [ |
{gfg}f2a/2g/2f{gef}e2{a}g/2f/2e | \
{Gdc}d2{g}f/2e/2d{gcd}c2{g}e3/2c/2 | \
{g}B3/2c/2{Gdc}d3/2B/2{g}A3/2d/2{g}f/2a3/2 |
{f}g3/2f/2{gef}e3/2d/2{g}f/2a3/2{a}a2 | \
{gfg}f2a/2g/2f{gef}e2{a}g/2f/2e | \
{Gdc}d2{g}f/2e/2d{gcd}c2{g}e3/2c/2 |
{g}B3/2c/2{Gdc}d3/2B/2{g}A3/2d/2{g}f/2a3/2 | \
{g}A3/2{d}c/2{gef}e3/2g/2{a}f/2d3/2{gdG}d2|]
